assets/playstation2/original.svg

<svg viewBox="0 0 24 24" xmlns="http://www.w3.org/2000/svg" fill="#003791"><path d="m7.46 13.779v.292h4.142v-3.85h3.796v-.291h-4.115v3.85zm16.248-3.558v1.62h-7.195v2.23h7.487v-.292h-7.168v-1.646h7.168v-2.204h-7.487v.292zm-16.513 0v1.62h-7.195v2.23h.292v-1.938h7.168v-2.204h-7.46v.292z"/></svg>

<svg xmlns="http://www.w3.org/2000/svg" fill="#003791" viewBox="0 0 24 24"><path d="M7.46 13.779v.292h4.142v-3.85h3.796V9.93h-4.115v3.85zm16.248-3.558v1.62h-7.195v2.23H24v-.292h-7.168v-1.646H24V9.929h-7.487v.292zm-16.513 0v1.62H0v2.23h.292v-1.938H7.46V9.929H0v.292z"/></svg>
